icons/shirt-line.svg

<svg xmlns="http://www.w3.org/2000/svg" width="24" height="24" fill="none"><g clip-path="url(#a)"><g><path fill="#121212" d="M13 20H19V16H15V14H19V6H17V11L13 9.4V20ZM11 20V9.4L7 11V6H5V20H11ZM7 4V3H17V4H20C20.2652 4 20.5196 4.10536 20.7071 4.29289C20.8946 4.48043 21 4.73478 21 5V21C21 21.2652 20.8946 21.5196 20.7071 21.7071C20.5196 21.8946 20.2652 22 20 22H4C3.73478 22 3.48043 21.8946 3.29289 21.7071C3.10536 21.5196 3 21.2652 3 21V5C3 4.73478 3.10536 4.48043 3.29289 4.29289C3.48043 4.10536 3.73478 4 4 4H7ZM12 8L15.5 5H8.5L12 8Z"/></g></g><defs><clipPath id="a"><rect width="24" height="24" fill="white"/></clipPath></defs></svg>

<svg width="24" height="24" fill="none" xmlns="http://www.w3.org/2000/svg"><g clip-path="url(#a)"><path d="M13 20h6v-4h-4v-2h4V6h-2v5l-4-1.6V20Zm-2 0V9.4L7 11V6H5v14h6ZM7 4V3h10v1h3a1 1 0 0 1 1 1v16a1 1 0 0 1-1 1H4a1 1 0 0 1-1-1V5a1 1 0 0 1 1-1h3Zm5 4 3.5-3h-7L12 8Z" /></g><defs><clipPath id="a"><path fill="#fff" d="M0 0h24v24H0z"/></clipPath></defs></svg>
